X:1
T:We Know Not the Hour
T:We Know Not the Hour
T:Franklin Edson Belden
T:Franklin Edson Belden, 1888
T:Public Domain Courtesy of the Cyber Hymnal™
T:Public Domain Courtesy of the Cyber Hymnal™
C:Franklin Edson Belden
Z:Public Domain
Z:Courtesy of the Cyber Hymnal™
%%score ( 1 2 ) ( 3 4 )
L:1/8
Q:1/4=114
M:3/4
K:C
V:1 treble 
V:2 treble 
V:3 bass 
V:4 bass 
V:1
 G2 | [Ec]2 [Ec]2 [Ec]2 | [Ec]4 [CE]>[CF] | [B,G]2 [B,D]2 [B,F]2 | [B,F]2 [CE]2 [EG]2 | %5
w: 1.~We|know not the|hour of the|Mas- ter’s ap-|pear- ing, Yet|
w: 2.~There’s|light for the|wise who are|seek- ing sal-|va- tion; There’s|
w: 3.~We’ll|watch and we’ll|pray, with our|lamps trimmed and|burn- ing; We’ll|
 [DB]2 [DB]2 [DB]2 | [DB]4 [B,D]>[CE] | [DF]2 [^CE]2 [DF]2 | [FA]2 [EG]2 [EG]2 | %9
w: signs all fore-|tell that the|mo- ment is|near- ing When|
w: truth in the|book of the|Lord’s re- ve-|la- tion; Each|
w: work and we’ll|wait till the|Mas- ter’s re-|turn- ing; We’ll|
 [Ge]2 [Ge]2 [Ge]2 | [Ge]4 [Gc]>[Gc] | [Gc]2 [Gd]2 [_Be]2 | [Af]2 [FA]2 [Ac]>[_Ad] | [Ge]6 | %14
w: He shall re-|turn— ’tis a|prom- ise most|cheer- ing— But we|know|
w: pro- phe- cy|points to the|great con- sum-|ma- tion— But we|know|
w: sing and re-|joice, ev- ery|o- men dis-|cern- ing— But we|know|
 [Fd]4 [Fd]2 | [Ec]6- | [Ec]4 ||"^Refrain" [FG]>[FG] | [EG]6- | [EG]4 [EG]>[EG] | %20
w: not the|hour.|||||
w: not the|hour.||He will|come,|* let us|
w: not the|hour.|||||
 [Ec]2 [EG]2 [EG]2 | [Ec]2 [EG]2 [FG]>[FG] | [EG]6- | [EG]4 [EG]>[EG] | [Fd]2 [FG]2 [FG]>[FG] | %25
w: |||||
w: watch and be|rea- dy; He will|come,|* hal- le-|lu- jah! hal- le-|
w: |||||
 [Fd]2 [FG]2 [FG]>[FG] | [Ee]2 [Ge]2 [Ge]2 | [Ge]4 [Gc]>[Gc] | [Gc]2 [Gd]2 [_Be]2 | %29
w: ||||
w: lu- jah! He will|come in the|clouds of His|Fa- ther’s bright|
w: ||||
 [Af]2 [FA]2 [Ac]>[_Ad] | [Ge]6 | [Fd]4 [Fd]2 | [Ec]6- | [Ec]4 |] %34
w: |||||
w: glo- ry— But we|know|not the|hour.||
w: |||||
V:2
 G2 | x6 | x6 | x6 | x6 | x6 | x6 | x6 | x6 | x6 | x6 | x6 | x6 | x6 | x6 | x6 | x4 || x2 | x6 | %19
 x6 | x6 | x6 | x6 | x6 | x6 | x6 | x6 | x6 | x6 | x6 | x6 | x6 | x6 | x4 |] %34
V:3
 G,2 | [C,G,]2 [C,G,]2 [C,G,]2 | [C,G,]4 [C,G,]>[C,G,] | [G,,G,]2 [G,,G,]2 [G,,G,]2 | %4
w: ~|~ ~ ~|~ ~ ~|~ ~ ~|
 [G,,G,]2 [C,G,]2 [C,C]2 | G,2 G,2 G,2 | G,4 G,>G, | G,2 G,2 G,2 | [C,C]2 [C,C]2 [C,C]2 | %9
w: ~ ~ ~|~ ~ ~|~ ~ ~|~ ~ ~|~ ~ ~|
 [C,C]2 [C,C]2 [C,C]2 | [C,C]4 [C,E]>[C,E] | [E,C]2 [D,B,]2 [C,C]2 | [F,C]2 [F,C]2 [F,C]>[F,C] | %13
w: ~ ~ ~|~ ~ ~|~ ~ ~|~ ~ ~ ~|
 [G,C]6 | [G,,G,]4 [G,,G,]2 | [C,G,]6- | [C,G,]4 || z2 | z2 [C,C]2 [C,C]2 | [C,C]4 [C,C]>[C,C] | %20
w: ~|~ ~|~|||He will|come, ~ ~|
 [C,G,]2 [C,C]2 [C,C]2 | [C,G,]2 [C,C]2 z2 | z2 [C,C]2 [C,C]2 | [C,C]4 C>C | %24
w: ~ ~ ~|~ ~|He will|come, * *|
 [G,B,]2 [G,B,]2 [G,B,]>[G,B,] | [G,B,]2 [G,B,]2 [G,B,]>[G,B,] | [C,C]2 [C,C]2 [C,C]2 | %27
w: |||
 [C,C]4 [C,E]>[C,E] | [E,C]2 [D,B,]2 [C,C]2 | [F,C]2 [F,C]2 [F,C]>[F,C] | [G,C]6 | %31
w: ||||
 [G,,G,]4 [G,,G,]2 | [C,G,]6- | [C,G,]4 |] %34
w: |||
V:4
 G,2 | x6 | x6 | x6 | x6 | G,2 G,2 G,2 | G,4 G,>G, | G,2 G,2 G,2 | x6 | x6 | x6 | x6 | x6 | x6 | %14
 x6 | x6 | x4 || x2 | x6 | x6 | x6 | x6 | x6 | x4 C>C | x6 | x6 | x6 | x6 | x6 | x6 | x6 | x6 | %32
 x6 | x4 |] %34

